X: 1
T:Old Aunt Sal
R:Polka
S:IrTrad, Gerry Strong, 3/98
N:Learnt from Tom Pinsent of Bellevue (Tickle Harbour
M:4/4
L:1/8
Q:155
W:First part has these words: Old Aunt Sal get your hand off the lassy
W:keg  Old Aunt Sal get your hand off the lassy keg Old Aunt Sal get your
W:hand off the lassy keg What are you doing with your finger in the bung
K:G
GGAE DBB/2A/2G|BBc>A AGF/2E/2D|GGAE DBB/2A/2G|BBc>A AG G2:|
|:gded gded|gga>a fef/2e/2d|ggfe dB B/2A/2G|BBc>A AG G2:||
